X: 11
T:Sweep's Hornpipe, The
M:4/4
L:1/8
H:1837
S:John Moore of Shropshire
Z:vmp.John Adams
K:G
D2|G2 BG E2 cA | FGAF G2 Bd | dcAc cBGB | ABcA GFED | GABG ABcA | BcdB
cdef | gfgd ecAF | G2G2G2 :|| Bc| dBdB g2 Bc| dedB G2 Bd | dcAc cBGB |
ABcA GFED | GABG ABcA | BcdB cdef | gfgd ecAF | G2G2G2:| 

